!!!!SEGMENT: T294_Rav-w23p15h10m5-12.krn
!!!COM: Ravel, (Joseph) Maurice
!!!OTL: II: Pantoum: Assez vif (Lively enough)
!!!OMD:
!!!AGN: Instrumental
!!!AGN-sub: Chamber
!!!CNT: French
!!!ODT: 1914
!!!OPR: Piano Trio
!!!filename: T294_Rav-w23p15h10m5-12.krn
**kern	**kern	**dynam	**kern	**dynam
*grp:A	*grp:A	*	*grp:B	*
*part2	*part2	*	*part1	*
*staff3	*staff2	*staff2/3	*staff1	*
*ICklav	*ICklav	*	*ICstr	*
*Ipiano	*Ipiano	*	*Ivioln	*
*I"Piano	*I"Piano	*	*I"Violin	*
*I'pf	*I'pf	*	*I'vn	*
*clefF4	*clefG2	*	*clefG2	*
*k[b-]	*k[b-]	*	*k[b-]	*
*F:	*F:	*	*F:	*
!!LO:TX:omd:tempo:a:t=[Assez vif]\n[[quarter]=192]
*M4/2	*M4/2	*	*M3/4	*
*^	*	*	*	*
!	!	!	!LO:DY:t=[ %s expressif]	!	!LO:DY:t=[ %s ]
!	!	!	!	!LO:N:head=odia	!
1.ryy	1.FF^)j 1.C	[1A^> [1c [<1d 1g	pp	8dd'L	pp
!	!	!	!	!LO:N:head=odia	!
.	.	.	.	8dd'	.
.	.	.	.	8aa'	.
.	.	.	.	8aa'	.
.	.	.	.	8gg'	.
.	.	.	.	8aa'J	.
=-	=-	=-	=	=	=
.	.	.	.	8a'L	.
.	.	.	.	8a'	.
.	.	2A] 2c] 2d] 2f)j	.	8aa'	.
.	.	.	.	8aa'	.
.	.	.	.	8gg'	.
.	.	.	.	8aa'J	.
=-	=-	=-	=	=	=
!	!	!	!	!LO:N:head=odia	!
(2ryy	(2AA 2G	(>2c 2e 2g 2cc	.	8dd'L	.
!	!	!	!	!LO:N:head=odia	!
.	.	.	.	8dd'	.
.	.	.	.	8aa'	.
.	.	.	.	8aa'	.
=	=	=	=	=-	=-
1r)yy	0D^> 0A)	1e^> 1f 1a 1ee	.	8gg'	.
.	.	.	.	8aa'J	.
=-	=-	=-	=-	=	=
.	.	.	.	8a'L	.
.	.	.	.	8a'	.
.	.	.	.	8aa'	.
.	.	.	.	8aa'	.
.	.	.	.	8gg'	.
.	.	.	.	8aa'J	.
=-	=-	=-	=-	=	=
!	!	!	!	!LO:N:head=odia	!
2ryy	.	2c 2f 2a 2cc)	.	8dd'L	.
!	!	!	!	!LO:N:head=odia	!
.	.	.	.	8dd'	.
.	.	.	.	8aa'	.
.	.	.	.	8aa'	.
(2c 2fi	.	(2a 2dd 2ffi	.	8gg'	.
.	.	.	.	8aa'J	.
=-	=-	=-	=	=	=
.	.	.	.	8a'L	.
.	.	.	.	8a'	.
.	[8qGG\ [8qD	.	.	.	.
=	=	=	=	=-	=-
2A 2B- 2d 2f	0GG_ 0D]	2a 2dd 2aa	>	8aa'	.
.	.	.	.	8aa'	.
.	.	.	.	8gg'	.
.	.	.	.	8aa'J	.
=-	=-	=-	=-	=	=
!	!	!	!	!LO:N:head=odia	!
2G 2c 2e	.	2g 2cc 2ee	.	8dd'L	.
!	!	!	!	!LO:N:head=odia	!
.	.	.	.	8dd'	.
.	.	.	.	8aa'	.
.	.	.	.	8aa'	.
2F 2B- 2d	.	2f 2b- 2gg	.	8gg'	.
.	.	.	.	8aa'J	.
=-	=-	=-	=-	=	=
.	.	.	.	8a'L	.
.	.	.	.	8a'	.
2E 2A 2c	.	2e 2a 2cc	]	8aa'	.
.	.	.	.	8aa'	.
.	.	.	.	8gg'	.
.	.	.	.	8aa'J	.
*v	*v	*	*	*	*
=||	=||	=||	=||	=||
*-	*-	*-	*-	*-
!!!system-decoration: s1{(s2,s3)}
!!!RDF**kern: > = above
!!!RDF**kern: < = below
!!!RDF**kern: i = marked note, color="hotpink", text="extra("
!!!RDF**kern: j = marked note, color="magenta", text="extra)"
!!!EED:Jason Lee
!!!EEV: 2022/01/28
!!!EED2: Gabriella Vici
!!!Suter_Work_ID: Rav-23
!!!Suter_Example_Number: 294
!!!Suter_Example_ID: Rav-23/15/[10]5-12
!!!Premiere_Location: Paris,France
!!!Other_Tsigs: none
!!!Full_Unit_Duration: 4:38
!!!First_Publication_Year: 1915
!!!First_Public_Performance_Year: 1915
!!!Example_Total_Measures: 8
!!!Example_Timestamp_Duration: 7
!!!Example_Start_Tsig_Type: polymetric
!!!Example_Start_Tsig_Mean_Beat_Rate: 144
!!!Example_Start_Tsig_Beat_Rate: 96;192
!!!Example_Start_Tsig_Beat: half;quarter
!!!Example_Start_Tsig: 4/2;3/4
!!!Example_Start_Timestamp: 2:06
!!!Example_Start_Tempo_Expression: [Assez vif]
!!!Example_Start_Notated_Beat_Rate: [192]
!!!Example_Start_Notated_Beat: [quarter]
!!!Example_Start_Measure: 125
!!!Example_Metadata_Validated: Y
!!!Example_End_Timestamp: 2:13
!!!Example_End_Measure: 132
!!!Example_Dataset: T
!!!Editorial_Comments: Example Start Notated Beat and Example Start Notated Beat Rate [quarter=192] based on most recent notated beat rate (SWFU, m. 1). Example Start Tempo Expression [Assez vif] based on most recent notated tempo expression (SWFU, m. 1).
!!!Death_Place: Paris,France
!!!Death_Date: 28-Dec-1937
!!!Changing_Tsig: no
!!!Birth_Place: Ciboure,France
!!!Birth_Date: 7-Mar-1875
!!!Audio_Example_Quarter_Note_Tempo:
!!!Audio_Example_Duration:
!!!EEV2: 2022/03/17
